; generated by Slic3r Prusa Edition 1.40.1+win64 on 2018-08-19 at 03:08:58

; 

; external perimeters extrusion width = 0.61mm
; perimeters extrusion width = 0.65mm
; infill extrusion width = 0.70mm
; solid infill extrusion width = 0.65mm
; top infill extrusion width = 0.60mm
; first layer extrusion width = 0.65mm

; external perimeters extrusion width = 0.61mm
; perimeters extrusion width = 0.65mm
; infill extrusion width = 0.70mm
; solid infill extrusion width = 0.65mm
; top infill extrusion width = 0.60mm
; first layer extrusion width = 0.65mm

M107
M115 U3.3.1 ; tell printer latest fw version
M201 X1000 Y1000 Z1000 E9000 ; sets maximum accelerations, mm/sec^2
M203 X200 Y200 Z12 E120 ; sets maximum feedrates, mm/sec
M204 S1250 T1250 ; sets acceleration (S) and retract acceleration (T)
M205 X8 Y8 Z0.4 E1.5 ; sets the jerk limits, mm/sec
M205 S0 T0 ; sets the minimum extruding and travel feed rate, mm/sec
M83  ; extruder relative mode
M104 S230 ; set extruder temp
M140 S50 ; set bed temp
M190 S50 ; wait for bed temp
M109 S230 ; wait for extruder temp
G28 W ; home all without mesh bed level
G80 ; mesh bed leveling
G1 Y-3.0 F1000.0 ; go outside print area
G92 E0.0
G1 X60.0 E9.0  F1000.0 ; intro line
G1 X100.0 E12.5  F1000.0 ; intro line
G92 E0.0
M221 S95
M900 K10; Filament gcode
G21 ; set units to millimeters
G90 ; use absolute coordinates
M83 ; use relative distances for extrusion
;BEFORE_LAYER_CHANGE
G92 E0.0
;0.2


G1 E-1.00000 F3000.00000
G1 Z0.600 F10800.000
;AFTER_LAYER_CHANGE
;0.2
G1 X70.513 Y101.001
G1 Z0.200
G1 E1.00000 F3000.00000
M204 S1000
G1 F741.254
G1 X72.832 Y99.529 E0.16644
G1 X75.195 Y98.215 E0.16371
G1 X168.445 Y48.718 E6.39507
G1 X169.937 Y47.959 E0.10138
G1 X171.479 Y47.326 E0.10093
G1 X173.244 Y46.762 E0.11228
G1 X175.468 Y46.299 E0.13755
G1 X176.711 Y46.128 E0.07605
G1 X178.483 Y46.029 E0.10752
G1 X180.202 Y46.075 E0.10411
G1 X181.944 Y46.264 E0.10616
G1 X183.664 Y46.597 E0.10615
G1 X185.276 Y47.048 E0.10139
G1 X187.473 Y47.903 E0.14281
G1 X188.617 Y48.446 E0.07668
G1 X190.166 Y49.343 E0.10842
G1 X191.562 Y50.312 E0.10298
G1 X192.919 Y51.428 E0.10638
G1 X194.175 Y52.649 E0.10615
G1 X195.308 Y53.947 E0.10434
G1 X196.324 Y55.323 E0.10362
G1 X197.116 Y56.581 E0.09003
G1 X197.845 Y57.947 E0.09380
G1 X198.482 Y59.391 E0.09561
G1 X198.989 Y60.807 E0.09108
G1 X199.403 Y62.295 E0.09357
G1 X199.707 Y63.806 E0.09334
G1 X199.904 Y65.391 E0.09675
G1 X199.982 Y66.874 E0.08994
G1 X199.948 Y68.474 E0.09697
G1 X199.802 Y70.008 E0.09334
G1 X199.304 Y72.527 E0.15552
G1 X198.737 Y74.399 E0.11847
G1 X198.163 Y75.833 E0.09357
G1 X197.475 Y77.241 E0.09494
G1 X196.710 Y78.553 E0.09198
G1 X195.827 Y79.843 E0.09471
G1 X194.864 Y81.051 E0.09357
G1 X193.818 Y82.182 E0.09335
G1 X192.665 Y83.258 E0.09551
G1 X112.084 Y152.913 E6.45202
G1 X110.190 Y154.464 E0.14831
G1 X108.191 Y155.928 E0.15007
G1 X106.122 Y157.276 E0.14961
G1 X103.942 Y158.530 E0.15234
G1 X101.778 Y159.625 E0.14689
G1 X100.121 Y160.354 E0.10968
G1 X97.205 Y161.487 E0.18950
G1 X94.784 Y162.247 E0.15370
G1 X92.445 Y162.844 E0.14621
G1 X90.666 Y163.199 E0.10991
G1 X87.577 Y163.673 E0.18927
G1 X85.049 Y163.891 E0.15370
G1 X82.633 Y163.968 E0.14643
G1 X80.819 Y163.929 E0.10991
G1 X77.705 Y163.724 E0.18904
G1 X75.169 Y163.387 E0.15500
G1 X72.799 Y162.940 E0.14604
G1 X70.419 Y162.356 E0.14848
G1 X67.988 Y161.616 E0.15392
G1 X65.700 Y160.779 E0.14755
G1 X64.359 Y160.203 E0.08845
G1 X62.334 Y159.145 E0.13836
G1 X59.897 Y157.525 E0.17725
G1 X58.159 Y156.087 E0.13666
G1 X56.122 Y154.010 E0.17622
G1 X54.280 Y151.617 E0.18291
G1 X53.364 Y150.158 E0.10437
G1 X52.565 Y148.663 E0.10268
G1 X51.463 Y146.052 E0.17168
G1 X51.005 Y144.645 E0.08961
G1 X50.583 Y142.984 E0.10382
G1 X50.145 Y140.210 E0.17009
G1 X50.038 Y138.739 E0.08939
G1 X50.026 Y137.029 E0.10359
G1 X50.133 Y135.314 E0.10404
G1 X50.470 Y132.633 E0.16370
G1 X50.974 Y129.912 E0.16764
G1 X51.860 Y126.505 E0.21322
G1 X52.461 Y124.581 E0.12209
G1 X53.409 Y122.062 E0.16303
G1 X54.554 Y119.486 E0.17075
G1 X56.183 Y116.429 E0.20982
G1 X57.216 Y114.694 E0.12232
G1 X58.717 Y112.474 E0.16235
G1 X60.429 Y110.235 E0.17075
G1 X62.731 Y107.632 E0.21046
G1 X64.137 Y106.187 E0.12213
G1 X66.135 Y104.356 E0.16416
G1 X68.287 Y102.605 E0.16803
G1 X70.440 Y101.054 E0.16076
G1 F8640
G1 X72.832 Y99.529 E-0.93598
G1 X72.870 Y99.508 E-0.01402
G1 E-0.05000 F3000.00000
G1 Z0.800 F10800.000
G1 X120.737 Y97.904
G1 Z0.200
G1 E1.00000 F3000.00000
G1 F741.254
G1 X124.533 Y95.330 E0.27786
G1 X128.452 Y97.525 E0.27207
G1 X127.713 Y93.175 E0.26726
G1 X134.096 Y88.847 E0.46714
G1 X138.810 Y95.801 E0.50891
G1 X139.184 Y96.257 E0.03568
G1 X139.548 Y96.548 E0.02825
G1 X139.929 Y96.727 E0.02549
G1 X140.336 Y96.800 E0.02502
G1 X140.691 Y96.749 E0.02175
G1 X141.070 Y96.562 E0.02556
G1 X141.375 Y96.286 E0.02497
G1 X141.548 Y95.983 E0.02112
G1 X141.625 Y95.584 E0.02458
G1 X141.597 Y95.167 E0.02536
G1 X141.458 Y94.719 E0.02838
G1 X141.171 Y94.202 E0.03583
G1 X136.456 Y87.247 E0.50896
G1 X143.021 Y82.796 E0.48045
G1 X149.224 Y85.722 E0.41544
G1 X145.912 Y80.836 E0.35754
G1 X149.481 Y78.417 E0.26121
G1 X157.349 Y90.021 E0.84926
G1 X153.992 Y92.297 E0.24567
G1 X147.830 Y89.389 E0.41273
G1 X151.121 Y94.243 E0.35526
G1 X147.532 Y96.677 E0.26266
G1 X145.894 Y94.260 E0.17684
G1 X146.019 Y94.859 E0.03709
G1 X145.892 Y96.344 E0.09024
G1 X145.379 Y97.738 E0.08997
G1 X144.515 Y98.947 E0.09006
G1 X143.327 Y99.954 E0.09432
G1 X141.959 Y100.682 E0.09387
G1 X140.522 Y101.039 E0.08965
G1 X139.037 Y101.004 E0.08998
G1 X137.617 Y100.561 E0.09012
G1 X136.385 Y99.730 E0.08999
G1 X135.404 Y98.590 E0.09115
G1 X131.960 Y93.510 E0.37176
G1 X132.978 Y100.222 E0.41122
G1 X135.914 Y104.553 E0.31699
G1 X132.285 Y107.013 E0.26557
G1 X129.355 Y102.691 E0.31631
G1 X120.815 Y97.948 E0.59172
G1 F8640
G1 X123.170 Y96.290 E-0.95000
G1 E-0.05000 F3000.00000
G1 Z0.800 F10800.000
G1 X121.894 Y97.853
G1 Z0.200
G1 E1.00000 F3000.00000
G1 F741.254
G1 X124.564 Y96.043 E0.19536
G1 X129.264 Y98.675 E0.32628
G1 X128.377 Y93.458 E0.32053
G1 X131.062 Y91.638 E0.19652
G1 X132.398 Y100.448 E0.53981
G1 X135.071 Y104.391 E0.28854
G1 X132.447 Y106.170 E0.19202
G1 X129.776 Y102.231 E0.28831
G1 X121.973 Y97.897 E0.54069
G1 X121.509 Y97.393 F10800.000
G1 F8640
G1 X124.315 Y96.221 E-0.95000
G1 E-0.05000 F3000.00000
G1 Z0.800 F10800.000
G1 X131.355 Y91.536
G1 Z0.200
G1 E1.00000 F3000.00000
G1 F741.254
G1 X131.310 Y91.469 E0.00487
G1 X133.934 Y89.691 E0.19202
G1 X138.323 Y96.165 E0.47382
G1 X138.755 Y96.691 E0.04123
G1 X139.225 Y97.067 E0.03646
G1 X139.743 Y97.310 E0.03465
G1 X140.325 Y97.415 E0.03581
G1 X140.873 Y97.336 E0.03356
G1 X141.414 Y97.069 E0.03653
G1 X141.855 Y96.671 E0.03601
G1 X142.125 Y96.196 E0.03305
G1 X142.236 Y95.622 E0.03543
G1 X142.197 Y95.054 E0.03447
G1 X142.019 Y94.480 E0.03645
G1 X141.689 Y93.884 E0.04128
G1 X137.299 Y87.409 E0.47384
G1 X139.923 Y85.630 E0.19202
G1 X144.500 Y92.381 E0.49405
G1 X145.137 Y93.609 E0.08379
G1 X145.407 Y94.897 E0.07970
G1 X145.294 Y96.211 E0.07990
G1 X144.838 Y97.451 E0.08007
G1 X144.065 Y98.533 E0.08053
G1 X142.984 Y99.449 E0.08580
G1 X141.740 Y100.111 E0.08537
G1 X140.455 Y100.430 E0.08019
G1 X139.137 Y100.399 E0.07988
G1 X137.883 Y100.008 E0.07957
G1 X136.792 Y99.272 E0.07967
G1 X135.887 Y98.220 E0.08410
G1 X131.406 Y91.610 E0.48371
G1 X131.275 Y91.542 F10800.000
G1 F8640
G1 X131.310 Y91.469 E-0.05619
G1 X133.553 Y89.949 E-0.89381
G1 E-0.05000 F3000.00000
G1 Z0.800 F10800.000
G1 X140.603 Y85.375
G1 Z0.200
G1 E1.00000 F3000.00000
G1 F741.254
G1 X140.508 Y85.234 E0.01032
G1 X143.075 Y83.493 E0.18792
G1 X150.971 Y87.217 E0.52883
G1 X146.755 Y80.998 E0.45513
G1 X149.319 Y79.260 E0.18766
G1 X156.505 Y89.859 E0.77572
G1 X153.938 Y91.600 E0.18792
G1 X146.082 Y87.893 E0.52618
G1 X150.278 Y94.082 E0.45291
G1 X147.694 Y95.833 E0.18911
G1 X140.654 Y85.449 E0.75995
G1 X140.435 Y85.401 F10800.000
G1 F8640
G1 X140.508 Y85.234 E-0.08588
G1 X142.676 Y83.764 E-0.86412
G1 E-0.05000 F3000.00000
G1 Z0.800 F10800.000
G1 X135.223 Y75.980
G1 Z0.200
G1 E1.00000 F3000.00000
G1 F741.254
G1 X136.266 Y75.382 E0.07282
G1 X140.370 Y72.924 E0.28979
G1 X144.427 Y70.389 E0.28979
G1 X148.435 Y67.777 E0.28979
G1 X152.393 Y65.089 E0.28979
G1 X156.300 Y62.327 E0.28979
G1 X160.153 Y59.492 E0.28979
G1 X163.951 Y56.583 E0.28979
G1 X167.676 Y53.619 E0.28834
G1 X168.938 Y52.679 E0.09531
G1 X170.173 Y51.916 E0.08792
G1 X171.547 Y51.224 E0.09324
G1 X172.818 Y50.706 E0.08314
G1 X174.206 Y50.269 E0.08815
G1 X175.626 Y49.949 E0.08814
G1 X177.065 Y49.747 E0.08803
G1 X178.602 Y49.667 E0.09324
G1 X179.974 Y49.704 E0.08314
G1 X181.420 Y49.862 E0.08815
G1 X182.847 Y50.140 E0.08802
G1 X184.326 Y50.564 E0.09324
G1 X185.612 Y51.045 E0.08314
G1 X186.926 Y51.665 E0.08803
G1 X188.256 Y52.440 E0.09324
G1 X189.384 Y53.223 E0.08314
G1 X190.506 Y54.149 E0.08815
G1 X191.549 Y55.164 E0.08814
G1 X192.504 Y56.262 E0.08817
G1 X193.323 Y57.376 E0.08372
G1 X193.967 Y58.398 E0.07321
G1 X194.569 Y59.525 E0.07736
G1 X195.087 Y60.692 E0.07734
G1 X195.519 Y61.893 E0.07734
G1 X195.862 Y63.123 E0.07734
G1 X196.115 Y64.374 E0.07734
G1 X196.277 Y65.641 E0.07734
G1 X196.347 Y66.916 E0.07735
G1 X196.325 Y68.120 E0.07295
G1 X196.207 Y69.465 E0.08181
G1 X195.999 Y70.723 E0.07724
G1 X195.700 Y71.965 E0.07734
G1 X195.312 Y73.181 E0.07734
G1 X194.836 Y74.366 E0.07734
G1 X194.275 Y75.513 E0.07734
G1 X193.633 Y76.616 E0.07734
G1 X192.912 Y77.670 E0.07734
G1 X192.117 Y78.669 E0.07734
G1 X191.252 Y79.606 E0.07726
G1 X190.256 Y80.534 E0.08244
G1 X109.741 Y150.133 E6.44677
G1 X107.971 Y151.584 E0.13864
G1 X106.233 Y152.858 E0.13055
G1 X104.229 Y154.172 E0.14518
G1 X102.259 Y155.308 E0.13775
G1 X100.228 Y156.335 E0.13783
G1 X98.145 Y157.251 E0.13783
G1 X96.128 Y158.009 E0.13055
G1 X93.844 Y158.735 E0.14518
G1 X91.641 Y159.298 E0.13776
G1 X89.409 Y159.741 E0.13783
G1 X87.156 Y160.062 E0.13783
G1 X85.009 Y160.249 E0.13055
G1 X82.614 Y160.332 E0.14518
G1 X80.340 Y160.282 E0.13776
G1 X78.072 Y160.107 E0.13783
G1 X75.816 Y159.809 E0.13783
G1 X73.698 Y159.411 E0.13055
G1 X71.369 Y158.846 E0.14518
G1 X69.193 Y158.185 E0.13774
G1 X67.035 Y157.397 E0.13918
G1 X65.873 Y156.897 E0.07663
G1 X64.744 Y156.329 E0.07654
G1 X63.651 Y155.695 E0.07654
G1 X62.598 Y154.996 E0.07654
G1 X61.589 Y154.236 E0.07654
G1 X60.627 Y153.417 E0.07654
G1 X59.715 Y152.542 E0.07654
G1 X58.857 Y151.615 E0.07654
G1 X58.057 Y150.638 E0.07651
G1 X57.297 Y149.587 E0.07856
G1 X56.883 Y148.953 E0.04588
G1 X56.505 Y148.327 E0.04427
G1 X56.150 Y147.687 E0.04431
G1 X55.816 Y147.036 E0.04431
G1 X55.505 Y146.374 E0.04431
G1 X55.218 Y145.703 E0.04426
G1 X54.940 Y144.981 E0.04681
G1 X54.496 Y143.630 E0.08614
G1 X54.304 Y142.925 E0.04431
G1 X54.136 Y142.213 E0.04431
G1 X53.993 Y141.495 E0.04431
G1 X53.875 Y140.774 E0.04426
G1 X53.778 Y140.008 E0.04681
G1 X53.671 Y138.590 E0.08614
G1 X53.653 Y137.859 E0.04431
G1 X53.661 Y137.127 E0.04431
G1 X53.693 Y136.396 E0.04431
G1 X53.751 Y135.673 E0.04399
G1 X54.072 Y133.130 E0.15526
G1 X54.537 Y130.640 E0.15343
G1 X55.187 Y128.051 E0.16169
G1 X55.900 Y125.759 E0.14543
G1 X56.794 Y123.387 E0.15353
G1 X57.825 Y121.073 E0.15345
G1 X59.059 Y118.706 E0.16169
G1 X60.286 Y116.643 E0.14543
G1 X61.707 Y114.544 E0.15353
G1 X63.247 Y112.532 E0.15345
G1 X64.997 Y110.517 E0.16169
G1 X66.670 Y108.795 E0.14543
G1 X68.540 Y107.084 E0.15353
G1 X70.505 Y105.486 E0.15345
G1 X72.676 Y103.932 E0.16169
G1 X74.703 Y102.646 E0.14543
G1 X76.919 Y101.416 E0.15353
G1 X79.203 Y100.318 E0.15353
G1 X81.548 Y99.356 E0.15353
G1 X83.963 Y98.527 E0.15465
G1 X88.429 Y97.085 E0.28427
G1 X92.953 Y95.530 E0.28979
G1 X97.447 Y93.889 E0.28979
G1 X101.909 Y92.163 E0.28979
G1 X106.337 Y90.353 E0.28979
G1 X110.731 Y88.460 E0.28979
G1 X115.087 Y86.483 E0.28979
G1 X119.406 Y84.424 E0.28979
G1 X123.684 Y82.284 E0.28979
G1 X127.922 Y80.063 E0.28979
G1 X132.116 Y77.762 E0.28979
G1 X135.145 Y76.025 E0.21153
G1 X134.843 Y75.499 F10800.000
G1 F741.254
G1 X135.959 Y74.859 E0.07792
G1 X140.054 Y72.406 E0.28910
G1 X144.101 Y69.877 E0.28910
G1 X148.099 Y67.271 E0.28910
G1 X152.048 Y64.590 E0.28910
G1 X155.944 Y61.835 E0.28910
G1 X159.788 Y59.006 E0.28910
G1 X163.578 Y56.105 E0.28910
G1 X167.305 Y53.138 E0.28859
G1 X168.596 Y52.177 E0.09750
G1 X169.876 Y51.386 E0.09111
G1 X171.296 Y50.671 E0.09629
G1 X172.612 Y50.134 E0.08611
G1 X174.048 Y49.682 E0.09119
G1 X175.517 Y49.351 E0.09119
G1 X177.007 Y49.142 E0.09115
G1 X178.594 Y49.059 E0.09629
G1 X180.015 Y49.097 E0.08611
G1 X181.512 Y49.262 E0.09119
G1 X182.989 Y49.549 E0.09115
G1 X184.517 Y49.987 E0.09629
G1 X185.848 Y50.486 E0.08611
G1 X187.209 Y51.128 E0.09115
G1 X188.582 Y51.928 E0.09629
G1 X189.750 Y52.739 E0.08611
G1 X190.912 Y53.696 E0.09119
G1 X191.990 Y54.746 E0.09119
G1 X192.978 Y55.882 E0.09120
G1 X193.825 Y57.034 E0.08654
G1 X194.492 Y58.093 E0.07585
G1 X195.115 Y59.258 E0.08002
G1 X195.650 Y60.466 E0.08001
G1 X196.097 Y61.709 E0.08001
G1 X196.453 Y62.981 E0.08001
G1 X196.715 Y64.275 E0.08001
G1 X196.882 Y65.586 E0.08001
G1 X196.954 Y66.905 E0.08002
G1 X196.931 Y68.152 E0.07556
G1 X196.810 Y69.541 E0.08449
G1 X196.594 Y70.844 E0.07998
G1 X196.285 Y72.128 E0.08001
G1 X195.883 Y73.387 E0.08001
G1 X195.391 Y74.612 E0.08001
G1 X194.811 Y75.799 E0.08001
G1 X194.147 Y76.941 E0.08001
G1 X193.401 Y78.031 E0.08002
G1 X192.578 Y79.064 E0.08001
G1 X191.683 Y80.035 E0.07999
G1 X190.662 Y80.986 E0.08451
G1 X110.132 Y150.597 E6.44794
G1 X108.343 Y152.064 E0.14012
G1 X106.579 Y153.357 E0.13250
G1 X104.547 Y154.689 E0.14718
G1 X102.547 Y155.842 E0.13981
G1 X100.488 Y156.885 E0.13984
G1 X98.374 Y157.813 E0.13984
G1 X96.327 Y158.583 E0.13250
G1 X94.011 Y159.319 E0.14718
G1 X91.775 Y159.891 E0.13981
G1 X89.511 Y160.340 E0.13984
G1 X87.225 Y160.665 E0.13984
G1 X85.046 Y160.855 E0.13250
G1 X82.618 Y160.940 E0.14718
G1 X80.310 Y160.888 E0.13981
G1 X78.009 Y160.711 E0.13984
G1 X75.720 Y160.409 E0.13984
G1 X73.570 Y160.005 E0.13250
G1 X71.209 Y159.432 E0.14718
G1 X69.000 Y158.761 E0.13980
G1 X66.810 Y157.962 E0.14123
G1 X65.616 Y157.447 E0.07876
G1 X64.455 Y156.863 E0.07873
G1 X63.331 Y156.211 E0.07873
G1 X62.248 Y155.492 E0.07873
G1 X61.209 Y154.710 E0.07873
G1 X60.220 Y153.868 E0.07873
G1 X59.282 Y152.968 E0.07873
G1 X58.399 Y152.014 E0.07873
G1 X57.575 Y151.009 E0.07872
G1 X56.796 Y149.931 E0.08056
G1 X56.368 Y149.275 E0.04742
G1 X55.980 Y148.631 E0.04557
G1 X55.614 Y147.974 E0.04558
G1 X55.271 Y147.304 E0.04558
G1 X54.951 Y146.623 E0.04558
G1 X54.655 Y145.931 E0.04556
G1 X54.370 Y145.191 E0.04809
G1 X54.136 Y144.519 E0.04308
G1 X53.913 Y143.800 E0.04558
G1 X53.715 Y143.074 E0.04558
G1 X53.543 Y142.342 E0.04558
G1 X53.396 Y141.604 E0.04558
G1 X53.274 Y140.862 E0.04556
G1 X53.174 Y140.074 E0.04809
G1 X53.108 Y139.366 E0.04308
G1 X53.064 Y138.615 E0.04558
G1 X53.046 Y137.863 E0.04558
G1 X53.054 Y137.110 E0.04558
G1 X53.087 Y136.359 E0.04558
G1 X53.147 Y135.610 E0.04547
G1 X53.472 Y133.036 E0.15719
G1 X53.943 Y130.510 E0.15565
G1 X54.602 Y127.887 E0.16385
G1 X55.326 Y125.561 E0.14753
G1 X56.233 Y123.156 E0.15568
G1 X57.278 Y120.809 E0.15565
G1 X58.529 Y118.410 E0.16385
G1 X59.773 Y116.317 E0.14753
G1 X61.214 Y114.189 E0.15568
G1 X62.776 Y112.149 E0.15565
G1 X64.550 Y110.106 E0.16385
G1 X66.247 Y108.359 E0.14753
G1 X68.143 Y106.624 E0.15568
G1 X70.137 Y105.003 E0.15565
G1 X72.336 Y103.429 E0.16385
G1 X74.393 Y102.124 E0.14753
G1 X76.640 Y100.877 E0.15568
G1 X78.956 Y99.763 E0.15568
G1 X81.334 Y98.788 E0.15568
G1 X83.771 Y97.951 E0.15608
G1 X88.237 Y96.509 E0.28426
G1 X92.750 Y94.958 E0.28910
G1 X97.233 Y93.321 E0.28910
G1 X101.684 Y91.599 E0.28910
G1 X106.102 Y89.794 E0.28910
G1 X110.485 Y87.905 E0.28910
G1 X114.831 Y85.933 E0.28910
G1 X119.139 Y83.879 E0.28910
G1 X123.408 Y81.744 E0.28910
G1 X127.635 Y79.528 E0.28910
G1 X131.819 Y77.233 E0.28910
G1 X134.765 Y75.543 E0.20573
G1 X135.361 Y75.802 F10800.000
G1 F8640
G1 X135.959 Y74.859 E-0.45401
G1 X137.249 Y74.086 E-0.49599
G1 E-0.05000 F3000.00000
G1 Z0.800 F10800.000
G1 X130.118 Y93.796
G1 Z0.200
G1 E1.00000 F3000.00000
G1 F741.254
G1 X131.198 Y100.918 E0.43634
G1 X133.325 Y104.056 E0.22964
G1 X132.782 Y104.424 E0.03973
G1 X130.649 Y101.277 E0.23031
G1 X124.292 Y97.746 E0.44048
