;Project 8inchNagarryCade 2
;Created by Estlcam version 11 build 11.027
;Machining time about 00:12:41 hours

G90
M03 S24000
G00 Z5.0000


;No. 1: Drill 8
G00 X464.4108 Y181.7552
G00 Z0.5000
G01 Z-1.0000 F180 S24000
G00 Z0.5000
G00 Z-0.5000
G01 Z-2.0000
G00 Z0.5000
G00 Z-1.5000
G01 Z-3.0000
G00 Z0.5000
G00 Z-2.5000
G01 Z-4.0000
G00 Z0.5000
G00 Z-3.5000
G01 Z-5.0000
G00 Z0.5000
G00 Z-4.5000
G01 Z-6.0000
G00 Z0.5000
G00 Z-5.5000
G01 Z-7.0000
G00 Z0.5000
G00 Z-6.5000
G01 Z-8.0000
G00 Z0.5000
G00 Z-7.5000
G01 Z-9.0000
G00 Z0.5000
G00 Z-8.5000
G01 Z-10.0000
G00 Z0.5000
G00 Z-9.5000
G01 Z-11.0000
G00 Z5.0000


;No. 2: Drill 7
G00 X464.4111 Y221.6268 Z5.0000
G00 Z0.5000
G01 Z-1.0000 F180
G00 Z0.5000
G00 Z-0.5000
G01 Z-2.0000
G00 Z0.5000
G00 Z-1.5000
G01 Z-3.0000
G00 Z0.5000
G00 Z-2.5000
G01 Z-4.0000
G00 Z0.5000
G00 Z-3.5000
G01 Z-5.0000
G00 Z0.5000
G00 Z-4.5000
G01 Z-6.0000
G00 Z0.5000
G00 Z-5.5000
G01 Z-7.0000
G00 Z0.5000
G00 Z-6.5000
G01 Z-8.0000
G00 Z0.5000
G00 Z-7.5000
G01 Z-9.0000
G00 Z0.5000
G00 Z-8.5000
G01 Z-10.0000
G00 Z0.5000
G00 Z-9.5000
G01 Z-11.0000
G00 Z5.0000


;No. 3: Drill 6
G00 X549.3841 Y221.6272 Z5.0000
G00 Z0.5000
G01 Z-1.0000 F180
G00 Z0.5000
G00 Z-0.5000
G01 Z-2.0000
G00 Z0.5000
G00 Z-1.5000
G01 Z-3.0000
G00 Z0.5000
G00 Z-2.5000
G01 Z-4.0000
G00 Z0.5000
G00 Z-3.5000
G01 Z-5.0000
G00 Z0.5000
G00 Z-4.5000
G01 Z-6.0000
G00 Z0.5000
G00 Z-5.5000
G01 Z-7.0000
G00 Z0.5000
G00 Z-6.5000
G01 Z-8.0000
G00 Z0.5000
G00 Z-7.5000
G01 Z-9.0000
G00 Z0.5000
G00 Z-8.5000
G01 Z-10.0000
G00 Z0.5000
G00 Z-9.5000
G01 Z-11.0000
G00 Z5.0000


;No. 4: Drill 5
G00 X549.3840 Y181.7545 Z5.0000
G00 Z0.5000
G01 Z-1.0000 F180
G00 Z0.5000
G00 Z-0.5000
G01 Z-2.0000
G00 Z0.5000
G00 Z-1.5000
G01 Z-3.0000
G00 Z0.5000
G00 Z-2.5000
G01 Z-4.0000
G00 Z0.5000
G00 Z-3.5000
G01 Z-5.0000
G00 Z0.5000
G00 Z-4.5000
G01 Z-6.0000
G00 Z0.5000
G00 Z-5.5000
G01 Z-7.0000
G00 Z0.5000
G00 Z-6.5000
G01 Z-8.0000
G00 Z0.5000
G00 Z-7.5000
G01 Z-9.0000
G00 Z0.5000
G00 Z-8.5000
G01 Z-10.0000
G00 Z0.5000
G00 Z-9.5000
G01 Z-11.0000
G00 Z5.0000


;No. 5: Drill 4
G00 X594.5733 Y174.9857 Z5.0000
G00 Z0.5000
G01 Z-1.0000 F180
G00 Z0.5000
G00 Z-0.5000
G01 Z-2.0000
G00 Z0.5000
G00 Z-1.5000
G01 Z-3.0000
G00 Z0.5000
G00 Z-2.5000
G01 Z-4.0000
G00 Z0.5000
G00 Z-3.5000
G01 Z-5.0000
G00 Z0.5000
G00 Z-4.5000
G01 Z-6.0000
G00 Z0.5000
G00 Z-5.5000
G01 Z-7.0000
G00 Z0.5000
G00 Z-6.5000
G01 Z-8.0000
G00 Z0.5000
G00 Z-7.5000
G01 Z-9.0000
G00 Z0.5000
G00 Z-8.5000
G01 Z-10.0000
G00 Z0.5000
G00 Z-9.5000
G01 Z-11.0000
G00 Z5.0000


;No. 6: Drill 3
G00 X594.5729 Y225.0919 Z5.0000
G00 Z0.5000
G01 Z-1.0000 F180
G00 Z0.5000
G00 Z-0.5000
G01 Z-2.0000
G00 Z0.5000
G00 Z-1.5000
G01 Z-3.0000
G00 Z0.5000
G00 Z-2.5000
G01 Z-4.0000
G00 Z0.5000
G00 Z-3.5000
G01 Z-5.0000
G00 Z0.5000
G00 Z-4.5000
G01 Z-6.0000
G00 Z0.5000
G00 Z-5.5000
G01 Z-7.0000
G00 Z0.5000
G00 Z-6.5000
G01 Z-8.0000
G00 Z0.5000
G00 Z-7.5000
G01 Z-9.0000
G00 Z0.5000
G00 Z-8.5000
G01 Z-10.0000
G00 Z0.5000
G00 Z-9.5000
G01 Z-11.0000
G00 Z5.0000


;No. 7: Drill 2
G00 X667.2456 Y225.0917 Z5.0000
G00 Z0.5000
G01 Z-1.0000 F180
G00 Z0.5000
G00 Z-0.5000
G01 Z-2.0000
G00 Z0.5000
G00 Z-1.5000
G01 Z-3.0000
G00 Z0.5000
G00 Z-2.5000
G01 Z-4.0000
G00 Z0.5000
G00 Z-3.5000
G01 Z-5.0000
G00 Z0.5000
G00 Z-4.5000
G01 Z-6.0000
G00 Z0.5000
G00 Z-5.5000
G01 Z-7.0000
G00 Z0.5000
G00 Z-6.5000
G01 Z-8.0000
G00 Z0.5000
G00 Z-7.5000
G01 Z-9.0000
G00 Z0.5000
G00 Z-8.5000
G01 Z-10.0000
G00 Z0.5000
G00 Z-9.5000
G01 Z-11.0000
G00 Z5.0000


;No. 8: Drill 1
G00 X667.2452 Y174.9856 Z5.0000
G00 Z0.5000
G01 Z-1.0000 F180
G00 Z0.5000
G00 Z-0.5000
G01 Z-2.0000
G00 Z0.5000
G00 Z-1.5000
G01 Z-3.0000
G00 Z0.5000
G00 Z-2.5000
G01 Z-4.0000
G00 Z0.5000
G00 Z-3.5000
G01 Z-5.0000
G00 Z0.5000
G00 Z-4.5000
G01 Z-6.0000
G00 Z0.5000
G00 Z-5.5000
G01 Z-7.0000
G00 Z0.5000
G00 Z-6.5000
G01 Z-8.0000
G00 Z0.5000
G00 Z-7.5000
G01 Z-9.0000
G00 Z0.5000
G00 Z-8.5000
G01 Z-10.0000
G00 Z0.5000
G00 Z-9.5000
G01 Z-11.0000
G00 Z5.0000
G00 X0.0000 Y0.0000

M05
